X:1
T:Io mi pensai che spento fuss'el foco
T:Jacques Arcadelt c.1500-1568
T:Io mi pensai che spento fuss'el foco
T:This work is licensed under CC0: creativecommons.org/publicdomain/zero/1.0/
T:Transcribed from 1539 Gardano edition of Arcadelt's Il primo libro di madrigali a 4 Original note values halved
T:This work is licensed under CC0: creativecommons.org/publicdomain/zero/1.0/
T:This work is licensed under CC0: creativecommons.org/publicdomain/zero/1.0/
T:This work is licensed under CC0: creativecommons.org/publicdomain/zero/1.0/
T:This work is licensed under CC0: creativecommons.org/publicdomain/zero/1.0/
T:This work is licensed under CC0: creativecommons.org/publicdomain/zero/1.0/
T:This work is licensed under CC0: creativecommons.org/publicdomain/zero/1.0/
C:Jacques Arcadelt
C:c.1500-1568
Z:Anonymous
Z:This work is licensed under CC0: creativecommons.org/publicdomain/zero/1.0/
%%score [ 1 2 3 4 ]
L:1/8
M:4/4
K:C
V:1 treble nm="Piano" snm="Pno."
V:2 treble transpose=-12 nm="Piano" snm="Pno."
V:3 treble transpose=-12 nm="Piano" snm="Pno."
V:4 treble nm="Piano" snm="Pno."
V:1
"^Cantus" x8 |"^Instrument change" z8 | d4 c2 _B2 | A2 A2 A3 F | GFED E4 | D4 z4 | z8 | %7
w: ||Io mi pen-|sai che spen- to|fus- * s'el _ fo-|co||
 A2 c3 _BcA | _B2 c2 d4 | _B8- | B4 z2 d2 | d2 d2 G4 | z2 G2 GA_Bc | d3 e f2 e2- | ed d4"^#" ^c2 | %15
w: che spen- * * to|fus- s'el fo-|co|_ ch'a-|da- mar voi|m'in- chi- * * *|||
 d4 z2 d2- | d2 _B2 c2 A2 | z2 _B2 G2 A2 | F2 F2 G2 _B2 | _B2 A2 B3 A/G/ | F2 A4 G2- | %21
w: na e|_ gli'ar- d'hor piu|e gli'ar- d'hor|piu mi s'a- vi-|ci- * * * *||
 G2"^#" ^F2 G2 d2- | d2 d2 c2 d2 | e2 f3 edc | d2"^b" _e3 d d2- | d2 c2 d3 c | _B4 A4 | z8 | z8 | %29
w: * * na sde-|* gno mi fé|pa- rer _ _ _|_ che'l _ fus-|* se spen- *|* to|||
 z2 G2 F2 F2 | G2 G2 A2 A2 | z2 G2 F2 F2 | G2 G2 A2 A2 | z2 A2 A2 A2 | d2 d2 c3 c | _B A2 G A4 | %36
w: ma l'em- pia|ge- lo- si- a,|ma l'em- pia|ge- lo- si- a|me'l rac- ce-|se via piu che|fiam- m'al ven- to|
 z2 G2 F2 F2 | G2 G2 A2 A2 | z2 G2 F2 F2 | G2 G2 A2 A2 | z2 A2 A2 A2 | d2 d2 c2 c2 | _B2 A4 G2 | %43
w: e voi ni-|mi- ca mi- a,|e voi ni-|mi- ca mi- a|piu bel- l'o-|gni'hor vi fa- t'e|man- co pi-|
[M:2/4] A4 ||[M:3/4] F2 G2 A2 | _B4 B2 | A2 A2 _B2 | c2 d4 |[M:2/2] _B8- | B4 z2 d2 | d2 d2 G4 | %51
w: a,|piu bel- l'o-|gn'hor vi|fa- t'e man-|co pi-|a|_ ma|se pie- ta|
 z2 G2 GA_Bc | d3 e f2 e2- | ed d4"^#" ^c2 | d4 z2 d2- | d2 _B2 c2 A2 | z2 _B2 G2 A2 | %57
w: ha- ves- * * *|* se al- ma|_ Na- ni- *|na il|_ di- ro pur|il di- ro|
 F2 F2 G2 _B2 | _B2 A2 B3 A/G/ | F2 A2- AG G2- | G2 F2 G4 | z2 d4 _B2 | c2 A2 z2 _B2 | %63
w: pur voi sa- re-|ste di- vi- * *||* * na|il di-|ro pur, il|
 G2 A2 F2 F2 | G2 _B2 B2 A2 | _B3 A/G/ F2 A2- | AG G4"^#" ^F2 | G8- | G8- | G8- | G8 |] %71
w: di- ro pur voi|sa- re- ste di-|vi- * * * *||na.|_|||
V:2
"^Alto" x8 |"^Instrument change" z4 z2 G,2- | G,2 F,2 E,2 D,2- | D,2 D,2 F,3 F, | E,2 D,4 C,2 | %5
w: |Io|_ mi pen- sai|_ che spen- to|fus- s'el _|
 _B,,4 A,,4 | z4 D,2 F,2- | F,G, A,3 G, A,/G,/F,/E,/ | D,2 G,4"^#" ^F,2 | G,4 z2 D,2 | %10
w: fo- co|che spen-|* to fus- * * * * *|s'el fo- *|co ch'a-|
 D,2 D,2 G,,2 G,,2 | _B,,A,,B,,C, D,2 B,,2 | _E,4 D,2 G,2 | G,2 F,3 G, A,2- | A,2 _B,2 A,4 | %15
w: da- mar voi m'in-|chi- * * * * *|* na ch'a-|da- mar _ voi|_ m'in- chi-|
 F,4 z4 | G,4 E,2 F,2 | D,4 z2 C,2 | D,E,F,D,"^b" _E,D,C,_B,, | C,4 _B,,2 F,2 | %20
w: na|e gli'ar- d'hor|piu e|piu mi s'a- vi- ci- * * *|* na e|
 F,2 F,2 D,2"^b" _E,2 | D,4 D,4 | G,4 A,2 F,2 | G,2 A,2 _B,3 A, | G,F, G,3 D, F,2 | E,4 D,2 D,2 | %26
w: piu mi s'a- vi-|ci- na|sde- gno mi|fé pa- rer _|_ _ che'l fus- se|spen- to che'l|
 G,3 F, E,2 D,2- | D,2 C,2 D,2 G,,2 | D,3 C, _B,,2 A,,2 | G,,2 G,,2 A,,2 A,,2 | %30
w: fus- se spen- *|* * to che'l|fus- se spen- *|to ma l'em- pia|
 _B,,2 B,,2 A,,2 D,2- | D,2 C,2 D,4 | z2 E,2 F,4- | F,2 F,2 F,2 F,2 | F,4 z2 A,2 | %35
w: ge- lo- si- *|* * a|me'l rac-|* ce- se via|piu che|
 G, F,2 E,/D,/ C,2 z A,, | _B,,A,,G,,G,, A,,2 A,,2 | _B,,2 B,,2 A,,2 D,2- | D,2 C,2 D,4 | %39
w: fiam- m'al ven- * to e|voi ni- mi- ca mia, e|voi ni- mi- ca|_ mi- a|
 z2 E,2 F,4- | F,2 F,2 F,2 F,2 | F,4 F,3 E, | D,2 C,2 D,4 |[M:2/4] E,4 ||[M:3/4] D,2 E,2 F,2 | %45
w: piu bel-|* l'o- gni'hor vi|fa- te et|man- co pi-|a,|piu bel- l'o-|
 F,4 G,2 | E,2 F,2 D,2 | G,4 F,2 |[M:2/2] G,4 z2 D,2 | D,2 D,2 G,,2 G,,2 | _B,,A,,B,,C, D,2 B,,2 | %51
w: gn'hor vi|fa- t'e man-|co pi-|a ma|se pie- ta- t'ha-|ves- * * * * *|
 _E,4 D,2 G,2 | G,2 F,2- F,G, A,2- | A,2 _B,2 A,4 | F,4 z4 | G,4 E,2 F,2 | D,4 z2 C,2 | %57
w: * se al-|ma Na- * * *|* * ni-|na|il di- ro|pur voi|
 D,E,F,D,"^b" _E,D,C,_B,, | C,4 _B,,2 F,2 | F,2 F,2 D,2"^b" _E,2 | D,4 _B,,4 | z4 G,4 | %62
w: sa- re- ste di- vi- * * *|* na, voi|sa- re- ste di-|vi- na|il|
 E,2 F,2 D,4 | z2 C,2 D,E,F,D, |"^b" _E,D,C,_B,, C,4 | _B,,2 F,2 F,2 F,2 | D,2"^b" _E,2 D,2 D,D, | %67
w: di- ro pur|voi sa- re- ste di-|vi- * * * *|na, voi sa- re-|ste di- vi- na, voi|
 D,2 D,2"^b" _E,4- | E,2 D,2 C,4 | _B,,3 C, D,4- | D,8 |] %71
w: sa- re- ste|_ di- vi-|na. _ _|_|
V:3
"^Tenor" x8 |"^Instrument change" G,4 F,2 E,2 | D,4 z4 | z4 D,4 | C,2 _B,,2 A,,4 | z4 D,4 | %6
w: |Io mi pen-|sai,|io|mi pen- sai,|io|
 C,2 _B,,2 A,,2 D,2 | C,2 A,,2 C,3 C, | _B,,2 G,,2 A,,4 | G,,8 | z2 D,2 D,2 D,2 | %11
w: mi pen- sai che|spen- to fus- s'el|fo- * *|co|ch'a- da- mar|
 G,,3 A,, _B,,C,D,B,, | C,4 z2 G,,2 | G,,A,,_B,,C, D,2 E,2 | F,2 G,2 E,4 | D,8 | z4 z2 D,2- | %17
w: voi _ _ _ _ _|_ ch'a-|da- * * * mar voi|m'in- * chi-|na|e|
 D,2 _B,,2 C,2 A,,2 | z A,, A,,A,, G,,2 G,,2 | F,,F,, F,2 D,3 D, | D,2 C,2 _B,,2 C,2 | %21
w: _ gli'ar- d'hor piu|e piu mi s'a- vi-|ci- na e piu mi|s'a- vi- ci- *|
 A,,4 G,,2 _B,,2- | B,,2 _B,,2 A,,2 B,,2 | G,,2 F,,2 z4 | z8 | z4 z2 D,2- | D,2 D,2 C,2 D,2 | %27
w: * na sde-|* gno mi fé|pa- rer||sde-|* gno mi fé|
 E,2 F,3 E,D,C, | _B,,3 A,, B,,C, D,2- | D,2 C,2 D,4 | z2 G,,2 F,,2 F,,2 | G,,2 G,,2 A,,2 A,,2 | %32
w: pa- rer _ _ _|_ che'l fus- se spen-|* * to|ma l'em- pia|ge- lo- si- a|
 z2 C,2 C,2 C,2 | A,,2 A,,2 F,,4 | _B,,4 A,,2 A,,A,, | _B,,C, D,2 E,2 z F, | E,D,D,C, D,2 D,2 | %37
w: me'l rac- ce-|se via piu|che fiam- ma che|fiam- m'al ven- to e|voi ni- mi- ca mi- a,|
 z2 G,,2 F,,2 F,,2 | G,,2 G,,2 A,,2 A,,2 | z2 C,2 C,2 C,2 | A,,2 A,,2 F,,4 | _B,,4 A,,2 A,2 | %42
w: e voi ni-|mi- ca- mi- a|piu bel- l'o-|gni'hor vi fa-|* te e|
 G,2 F,4 E,D, |[M:2/4] C,4 ||[M:3/4] A,,2 _B,,2 C,2 | D,4 D,2 | C,2 C,2 _B,,2 | G,,2 A,,4 | %48
w: man- co pi- *|a,|piu bel- l'o-|gn'hor vi|fa- t'e man-|co pi-|
[M:2/2] G,,8 | z2 D,2 D,2 D,2 | G,,3 A,, _B,,C,D,B,, | C,4 z2 G,,2 | G,,A,,_B,,C, D,2 E,2 | %53
w: a|ma se pie-|ta- * * * * *|te ha-|ves- * * * * se'al-|
 F,2 G,2 E,4 | D,8 | z2 G,,2 C,2 D,2- | D,D, _B,,2 C,2 A,,2 | z A,, A,,A,, G,,2 G,,2 | %58
w: ma Na- ni-|na|il di- ro,|_ il di- ro pur|voi sa- re- ste di-|
 F,,F,, F,2 D,3 D, | D,2 C,2 _B,,2 C,2 | A,,4 G,,3 A,, | _B,,4 z2 G,,2 | C,2 D,2- D,D, _B,,2 | %63
w: vi- na, voi sa- re-|ste di- vi- *|* na _|_ il|di- ro * il di-|
 C,2 A,,2 z A,, A,,A,, | G,,2 G,,2 F,,F,, F,2 | D,3 D, D,2 C,2 | (3:2:2_B,,4 C,2 A,,4 | %67
w: ro pur voi sa- re-|ste di- vi- na voi|sa- re- ste di-|vi- * *|
 G,,4 z2 _B,,2 | C,2 D,2 _E,2 C,2 | D,4"^§" B,,4- | B,,8 |] %71
w: na voi|sa- re- ste di-|vi- na.||
V:4
"^Bass" x8 |"^Instrument change" z8 | z8 | z8 | z8 | z2 G,4 F,2 | E,2 D,4 D,2 | F,3 G, A,2 F,2 | %8
w: |||||Io mi|pen- sai che|spen- * * to|
 G,2 E,2 D,2 D,2 | z2 D2 D2 D2 | G,2 G,2 _B,3 C | D2 G,2 G,2 G,2 | C,D,"^b"_E,F, G,F,G,A, | %13
w: fus- s'el fo- co|ch'a- da- mar|voi m'in- chi- *|na ch'a- da- mar|voi _ _ _ _ _ _ _|
 _B,C D2 B,2 C2 | D2 G,2 A,4 | D,8 | z8 | G,4 E,2 F,2 | D,4 z4 | z2 F,2 G,2 _B,2 | %20
w: _ _ _ m'in- chi-||na||e gli'ar- d'hor|piu|e piu mi|
 _B,2 F,2 G,2 C,2 | D,4 G,4- | G,4 z4 | z8 | G,4 G,2 F,2 | G,2 A,2 _B,4 | G,4 A,2 F,2 | %27
w: s'a- vi- ci- *|* na|_||sde- gno mi|fé pa- rer,|sde- gno mi|
 G,2 A,2 _B,3 A, | G,F, G,3 F, D,2 |"^b" _E,4 D,4 | z2 G,2 D,2 D,2 |"^b" _E,2"^b" E,2 D,2 D,2 | %32
w: fé pa- rer _|_ _ che'l fus- se|spen- to|ma l'em- pia|ge- lo- si- a|
 z2 C,2 F,4- | F,2 F,2 D,2 D,2 | _B,,C,D,E, F,3 F, | G,A, _B,2 A,2 z F, | G,D,E,E, D,2 D,2 | %37
w: me'l rac-|* ce- se via|piu _ _ _ _ che|fiam- m'al ven- to e|voi ni- mi- ca mi- a,|
 z2 G,2 D,2 D,2 |"^b" _E,2"^b" E,2 D,2 D,2 | z2 C,2 F,4- | F,2 F,2 D,2 D,2 | _B,,C,D,E, F,2 F,2 | %42
w: e voi ni-|mi- ca mi- a|piu bel-|* l'o- gni'hor vi|fa- * * * * t'e|
 G,2 A,2 _B,4 |[M:2/4] A,4 ||[M:3/4] D,2 G,2 F,2 | _B,4 G,2 | A,2 F,2 G,2 | E,2 D,2 D,2 | %48
w: man- co pi-|a,|piu bel- l'o-|gn'hor vi|fa- t'e man-|co pi- a|
[M:2/2] z2 D2 D2 D2 | G,2 G,2 _B,3 C | D2 G,2 G,2 G,2 | C,D,"^b"_E,F, G,F,G,A, | _B,C D2 B,2 C2 | %53
w: ma se pie-|ta- t'ha- ves- *|se, ma se pie-|ta- * * * * * * *|* * t'ha- ves- se'al-|
 D2 G,2 A,4 | D,8 | z8 | G,4 E,2 F,2 | D,4 z4 | z2 F,2 G,2 _B,2 | _B,2 F,2 G,2 C,2 | D,4 G,4- | %61
w: ma Na- ni-|na||il di- ro|pur|voi sa- re-|ste di- vi- *|* na|
 G,4 z4 | z4 G,4 | E,2 F,2 D,4 | z4 z2 F,2 | G,2 _B,2 B,2 F,2 | G,4 D,4 | z2 _B,,2 C,2 _E,2 | %68
w: _|il|di- ro pur|voi|sa- re- ste di-|vi- na|voi sa- re-|
"^b" _E,2 _B,,2 C,4 | G,8- | G,8 |] %71
w: ste di- vi-|na.||

